X:245
T:Stop Press
C:Peter Marshall 
D:Mando Mafia, "Take Two"
N:Transcription by David Weisler
M:C|
R:Reel
K:Am
G2|"Am"A2 GA cAAe-|e2 _e2 dcAG | A2 GA cAGE | "D" D2>"Eb"_E2-E2 "Em"=E2|
"Am"A2 GA cAAe-|e2 _e2 dcAd |"Am" ee^de "Dm"ae=dc | "Em"dc"G"AG "Am"A2 :|
|:ee | "Am7" e2 ^de ae=dc| dcAG A2 ee |"Am6" e2 ^de ae=dA | c2>d2-d2 ^d2|
"F/A" e2 ^de ae=dc | dcAG A2 GA | "Am"dcAG "Dm"AGDC | "Em"DC"G"A,G, "Am"A,2:|
